X:1
T:Jægerkor
T:Jægerkor
T:Emma Dahl
C:Emma Dahl
%%score [ 1 2 3 4 ]
L:1/8
Q:1/4=134
M:2/4
K:Eb
V:1 treble-8 nm="T1"
V:2 treble-8 nm="T2"
V:3 bass nm="B1"
V:4 bass nm="B2"
V:1
"^Allegro molto"!f! B2 G2 | e2 B2 | g3 e | e2 z2 | f4- | f2 f2 | g4- | g2 z2 |!pp!"^Ekko" f4- | %9
w: Lyn- gen|bag os|staar i|Rög,|staar|_ i|Rög.|_|staar|
 f2 f2 | g4- | g2 z2 |!f! G2 E2 | c2 G2 | e3 c | c2 z2 | f4- | f2 f2 | b4- | b2 z2 | %20
w: _ i|Rög,|_|for- an|er vor|Dron- nings|Hög.|Dron-|* nings|Hög.|_|
!pp!"^Ekko" f4- | f2 f2 | b4- | b2 z2 |!mf! B3 B | B3 B | e2 G2 | B4 | e4 |!<(! f4 | g4-!<)! | %31
w: Dron-|* nings|Hög.|_|Vel- lugt|staar af|Birk og|Hæg,|Birk|og|Hæg.|
 g2 z2 |!f! _B3 e | G3 B | E2 G2 | _C4 |!<(! (B,2 E) G!<)! | B2 e2 | !>!g4 | !>!f4 | !>!e4- | %41
w: _|Hor- net|stor- mer|Klip- pens|Væg,|Hor- * net|stor- mer|Klip-|pens|Væg.|
 e2 z2 |!pp!"^Ekko" g4 |"^morendo" !>!f4 | !>!e4- | e2 z2 |] %46
w: _|Klip-|pens|Væg.|_|
V:2
!f! G2 G2 | B2 B2 | e3 B | B2 z2 | d4- | d2 d2 | e4- | e2 z2 |!pp! d4- | d2 d2 | e4- | e2 z2 | %12
w: Lyn- gen|bag os|staar i|Rög,|staar|_ i|Rög.|_|staar|_ i|Rög,|_|
!f! G2 E2 | E2 G2 | c3 G | G2 z2 | e4- | e2 e2 | d4- | d2 z2 |!pp! e4- | e2 e2 | d4- | d2 z2 | %24
w: for- an|er vor|Dron- nings|Hög.|Dron-|* nings|Hög.|_|Dron-|* nings|Hög.|_|
!mf! B3 B | A3 A | G2 G2 | B4 | c4 |!<(! c4 | d4-!<)! | d2 z2 |!f! _B3 e | G3 B | E2 G2 | _C4 | %36
w: Vel- lugt|staar af|Birk og|Hæg,|Birk|og|Hæg.|_|Hor- net|stor- mer|Klip- pens|Væg,|
!<(! (B,2 E) G!<)! | B2 B2 | !>!e4 | !>!d4 | !>!B4- | B2 z2 |!pp! e4 |"^morendo" !>!d4 | !>!B4- | %45
w: Hor- * net|stor- mer|Klip-|pens|Væg.|_|Klip-|pens|Væg.|
 B2 z2 |] %46
w: _|
V:3
!f! E,2 E,2 | G,2 G,2 | B,3 G, | G,2 z2 | B,4- | B,2 B,2 | B,4- | B,2 z2 |!pp! B,4- | B,2 B,2 | %10
w: Lyn- gen|bag os|staar i|Rög,|staar|_ i|Rög.|_|staar|_ i|
 B,4- | B,2 z2 |!f! E,2 E,2 | G,2 E,2 | G,3 E, | E,2 z2 | =A,4- | A,2 =A,2 | B,4- | B,2 z2 | %20
w: Rög,|_|for- an|er vor|Dron- nings|Hög.|Dron-|* nings|Hög.|_|
!pp! =A,4- | A,2 =A,2 | B,4- | B,2 z2 |!mf! (D,2 E,) =E, | F,3 F, | B,2 E,2 | G,4 | G,4 |!<(! C4 | %30
w: Dron-|* nings|Hög.|_|Vel- * lugt|staar af|Birk og|Hæg,|Birk|og|
 =B,4-!<)! | B,2 z2 |!f! _B,3 E | G,3 B, | E,2 G,2 | _C,4 |!<(! (B,,2 E,) G,!<)! | B,2 G,2 | %38
w: Hæg.|_|Hor- net|stor- mer|Klip- pens|Væg,|Hor- * net|stor- mer|
 !>!B,4 | !>!A,4 | !>!G,4- | G,2 z2 |!pp! B,4 |"^morendo" !>!A,4 | !>!G,4- | G,2 z2 |] %46
w: Klip-|pens|Væg.|_|Klip-|pens|Væg.|_|
V:4
!f! E,2 E,2 | E,2 E,2 | E,3 E, | E,2 z2 | B,,4- | B,,2 B,,2 | E,4- | E,2 z2 |!pp! B,,4- | %9
w: Lyn- gen|bag os|staar i|Rög,|staar|_ i|Rög.|_|staar|
 B,,2 B,,2 | E,4- | E,2 z2 |!f! C,2 C,2 | C,2 C,2 | C,3 C, | C,2 z2 | (C,4 | F,2) F,2 | B,,4- | %19
w: _ i|Rög,|_|for- an|er vor|Dron- nings|Hög.|Dron-|* nings|Hög.|
 B,,2 z2 |!pp! (C,4 | F,2) F,2 | B,,4- | B,,2 z2 |!mf! (B,,2 C,) ^C, | D,3 D, | E,2 E,2 | E,4 | %28
w: _|Dron-|* nings|Hög.|_|Vel- * lugt|staar af|Birk og|Hæg,|
 C,4 |!<(! A,4 | G,4-!<)! | G,2 z2 |!f! _B,3 E | G,3 B, | E,2 G,2 | _C,4 |!<(! (B,,2 E,) G,!<)! | %37
w: Birk|og|Hæg.|_|Hor- net|stor- mer|Klip- pens|Væg,|Hor- * net|
 B,2 (G,E,) | !>!B,,4 | !>!B,,4 | !>!E,4- | E,2 z2 |!pp! B,,4 |"^morendo" !>!B,,4 | !>!E,4- | %45
w: stor- mer _|Klip-|pens|Væg.|_|Klip-|pens|Væg.|
 E,2 z2 |] %46
w: _|

